X: 155
T: Dang de jia yu hao
L: 1/8
M: 2/4
K: C
AA2d [I:setbarnb 1]| 
A GA2 | 
dc2d | 
e2e2 | 
e A A e | 
A> G E A | 
GE2D | 
E4 | 
dc2d | 
e2e2 | 
eA2e | 
A GE2 | 
D C C A | 
G> E E D | 
A,4 | 
Az3 |]

@@@ Tune index: 8823
